icons/arrow-curve-up-left-filled.svg

<svg viewBox="0 0 24 24"><path fill="currentColor" fill-rule="evenodd" d="M21.6 18a3.6 3.6 0 0 1-3.6 3.6h-12a3.6 3.6 0 0 1-3.6-3.6v-12a3.6 3.6 0 0 1 3.6-3.6h12a3.6 3.6 0 0 1 3.6 3.6zm-4.6 0a1 1 0 1 0 0-2h-4.6a1 1 0 0 1-1-1v-5.7l1.7 1.6a1 1 0 0 0 1.4-1.5l-3.4-3.1a1 1 0 0 0-1.4 0l-3.4 3.1a1 1 0 0 0 1.4 1.5l1.7-1.6v5.7a3 3 0 0 0 3 3z" clip-rule="evenodd"/></svg>

<svg viewBox="0 0 24 24"><path fill="currentColor" fill-rule="evenodd" d="M21.6 18a3.6 3.6 0 0 1-3.6 3.6H6A3.6 3.6 0 0 1 2.4 18V6A3.6 3.6 0 0 1 6 2.4h12A3.6 3.6 0 0 1 21.6 6zM17 18a1 1 0 1 0 0-2h-4.6a1 1 0 0 1-1-1V9.3l1.7 1.6a1 1 0 0 0 1.4-1.5L11 6.3a1 1 0 0 0-1.4 0L6.3 9.4A1 1 0 0 0 7.7 11l1.7-1.6V15a3 3 0 0 0 3 3z" clip-rule="evenodd"/></svg>
